coreui/free/cil-arrow-thick-from-left.svg

<svg viewBox="0 0 512 512" xmlns="http://www.w3.org/2000/svg"><g><path d="M296.007 56h-38.64v120h-144v160h144v120h38.625l200-199.8Zm-6.64 361.384v-113.39h-144v-96h144V94.63l161.37 161.53Z"/><path d="M17.375 56h32v400h-32Z"/></g></svg>

<svg xmlns="http://www.w3.org/2000/svg" viewBox="0 0 512 512">
  <path fill="var(--ci-primary-color, currentColor)" d="M296.007,56H257.375V176h-144V336h144V456H296L496,256.2Zm-6.632,361.384V304h-144V208h144V94.639l161.37,161.535Z" class="ci-primary"/>
  <rect width="32" height="400" x="17.375" y="56" fill="var(--ci-primary-color, currentColor)" class="ci-primary"/>
</svg>
